X: 3278
T: FLY NOT YET
%R: jig
B: James Kerr "Merry Melodies" v.3 p.30 #278
Z: 2016 John Chambers <jc:trillian.mit.edu>
M: 6/8
L: 1/8
K: G
|:\
vG2vG uG2uA | B2c d2B | d2e f2g | a2g fed |\
b2a g2f | g2f e2d | e2f g2e | d2c B2A |\
G2g agf |[1 ged cBA :|[2 g3- g2z |]
|:\
G2z g2z | G2z g2z | b2a g2f | g2f e2d |\
e2f g2e | d2c B2A | G2g gaf |[1 ged cBA :|[2 g3- g2z |]

%%sep 1 1 500
%%sep 1 1 500

